img/pin.svg

<svg width="3" height="4" viewBox="0 0 3 4" fill="none" xmlns="http://www.w3.org/2000/svg">
<path d="M1.39494 2.38254V3.36622L1.53954 3.57352C1.57074 3.61822 1.6395 3.61822 1.67069 3.57352L1.81523 3.36622V2.38254C1.747 2.39459 1.67693 2.40175 1.60508 2.40175C1.53324 2.40175 1.46317 2.39459 1.39494 2.38254ZM1.60508 0.392822C1.0828 0.392822 0.659424 0.797558 0.659424 1.29684C0.659424 1.79612 1.0828 2.20086 1.60508 2.20086C2.12736 2.20086 2.55074 1.79612 2.55074 1.29684C2.55074 0.797558 2.12736 0.392822 1.60508 0.392822ZM1.60508 0.869942C1.35882 0.869942 1.15852 1.06142 1.15852 1.29684C1.15852 1.3384 1.12319 1.37217 1.07972 1.37217C1.03624 1.37217 1.00091 1.3384 1.00091 1.29684C1.00091 0.978361 1.272 0.719273 1.60508 0.719273C1.64856 0.719273 1.68389 0.753048 1.68389 0.794607C1.68389 0.836167 1.64856 0.869942 1.60508 0.869942Z" fill="#C62828"/>
</svg>

<svg width="3" height="4" fill="none" xmlns="http://www.w3.org/2000/svg"><path d="M1.395 2.383v.983l.145.208a.08.08 0 0 0 .13 0l.145-.208v-.983a1.206 1.206 0 0 1-.42 0zm.21-1.99c-.522 0-.946.405-.946.904 0 .5.424.904.946.904s.946-.405.946-.904c0-.5-.424-.904-.946-.904zm0 .477a.438.438 0 0 0-.446.427.077.077 0 0 1-.08.075.077.077 0 0 1-.078-.075c0-.319.271-.578.604-.578.044 0 .079.034.079.076a.077.077 0 0 1-.079.075z" fill="#C62828"/></svg>
